!!! OTL: Mu\, Niu/, Shang-, Ge- (Song of herd)
!!! YEC: COpyright 2001, Chia-wei Lee
!! For Voice Only
**kern	**silbe
*clefG2	*LXinhua
*D:	*ping-ying
*M2/4	*
=9	=9
2ee;	Ai\
=10	=10
8dd	Tai\
8ee	Yang/
8b	Chu-
8dd	Shang-
=11	=11
(2ee;	Lo!
=12	=13
Q16dd	|
Q16ee	|
4dd	|
8a)	|
8r	.
=13	=13
8dd	Tai\
8ee	Yang/
8b	Chu-
8dd	Shang-
=14	=14
8.b	Lo!
16a	He
4a	He
*M1/4	*
=15	=15
4r	Jia!
*M2/4	*
=16	=16
8ee	Qing-
4ee	Zao^
8dd	Gan^
*M1/4	*
=17	=17
q8dd	Niu/
4b	|
*M2/4	*
=18	=18
8dd	Shan\
(16ee	Shang-
16dd)	|
8b	Po-
8r	.
=19	=19
8ee	Tai\
8ff	Yang/
8ee	Jian\
8dd	Wo^
=20	=20
(16b	Shiau\
16dd)	|
8a	Ho-
4b	Yio-
=21	=21
8b	Ho-
(16b	Yio-
16a)	|
4a	Yio
*-	*-
